X:1
T:Eternal Rest
T:Eternal Rest
T:Thoro Harris
T:Thoro Harris, 1918
T:Public Domain Courtesy of the Cyber Hymnal™
T:Public Domain Courtesy of the Cyber Hymnal™
C:Thoro Harris
Z:Public Domain
Z:Courtesy of the Cyber Hymnal™
%%score ( 1 2 ) ( 3 4 )
L:1/8
Q:1/4=105
M:6/8
K:C
V:1 treble 
V:2 treble 
V:3 bass 
V:4 bass 
V:1
 [CE][DF][^D^F] [EG][=FA]>[FG] | [Ec]3 [EG]3 | [CE][CD]C [CA]2 [CG] | [B,F]3- [B,F]2 z | %4
w: 1.~Time’s clock is strik- ing the|hou- r,|Je- sus will soon de-|scend, *|
w: 2.~In those bright man- sions su-|per- nal,|Death can- not en- ter|there; *|
w: 3.~Sigh- ing for- ev- er is|end- ed,|Foes shall op- press no|more; *|
w: 4.~Beau- ti- ful, won- der- ful|sto- ry!|Je- sus Him- self the|Light; *|
 [B,D][CE][DF] [EG][FA]>[FG] | [Fd]3 [FB]3 | [FG][FB][FA] [EG]2 [DF] | [CE]3- [CE]2 z | %8
w: Clothed in the gar- ments of|pow- er,|The reign of sin to|end. *|
w: Ag- es on ag- es e-|ter- nal|His like- ness we shall|bear. *|
w: Voic- es in wor- ship are|blend- ed|To Him Whom all a-|dore. *|
w: There in the king- dom of|glo- ry|Nev- er shall fall the|night. *|
 [CE][DF][^D^F] [EG][=FA]>[FG] | [Ec]3 [EG]3 | [Ge][Fd][Ec] [Gd]2 [Gc] | [FA]3- [FA]2 z | %12
w: Then will this an- them be|ring- ing|Like to a might- y|flood, *|
w: There will the once brok- en-|heart- ed|Rest in the spir- it|know; *|
w: Bathed in the light soft and|ten- der,|Sealed for e- ter- ni-|ty, *|
w: Now I am sing- ing of|hea- ven,|While here I wage the|strife; *|
 [FA][FB][Fc] [Fd][Fc]>[FA] | [FA]3 [EG]3 | [FG][B,D][DF] [CE]2 [B,D] | C3- C2 z || %16
w: Then ’round the throne we’ll be|sing- ing,|Glo- ry and praise to|God. *|
w: Sor- row for- ev- er de-|part- ed,|Glad- ness shall o- ver-|flow. *|
w: Praise to the Lamb we will|ren- der—|Wor- thy of praise is|He. *|
w: Then will the vic- tors be|giv- en|Crowns of e- ter- nal|life. *|
"^Refrain" [Ge]3 [Ec]3 | [EG]E>[FA] [EG]3 | C[CE][EG] [EA]2 [EG] | [FB]3- [FB]2 z | %20
w: ||||
w: Glo- ry,|glo- ry to God!|Thus will the ran- somed|sing; *|
w: ||||
w: ||||
!f! [FBf]3 [Fd]3 x | [FB][FA]>[Fc] [FB]3 | [FG][FB][FA] [EG]2 [DF] | [CE]3- [CE]2 z!f! | %24
w: ||||
w: Glo- ry,|glo- ry to God,|The ev- er- last- ing|King! *|
w: ||||
w: ||||
 [Ge]3 [Ec]3 | [EG]E>[FA] [EG]3 | C[CE][EG] [Gc]2 [Gd] | [FA]3- [FA]2 z | %28
w: ||||
w: Praise Him,|al- le- lu- ia!|To that e- ter- nal|sphere *|
w: ||||
w: ||||
 [Af]2 [G^ce] [Ad][Ac][_AB] | [Gc]2 [^GB] A[E=G][DF] | [CE]3 [B,D]3 x/ | C3- C2 z |] %32
w: ||||
w: We are wait- ing For|our trans- lat- ing; The|time is|near. *|
w: ||||
w: ||||
V:2
 x6 | x6 | x2 C x3 | x6 | x6 | x6 | x6 | x6 | x6 | x6 | x6 | x6 | x6 | x6 | x6 | C3- C2 x || x6 | %17
 x E3/2 x7/2 | C x5 | x6 | x7 | x6 | x6 | x6 | x6 | x E3/2 x7/2 | C x5 | x6 | x6 | x3 A x2 | %30
 x13/2 | C3- C2 x |] %32
V:3
 C,[G,C][A,C] C,[G,B,][G,B,] | C, ([G,C][G,C]) C, ([G,C][G,C]) | G,F,E, F,2 E, | (D,2 G, G,2) z | %4
 G,,G,G, G,,G,G, | (G,,G,G,) (G,,G,G,) | B,,G,G, (G,,A,,)B,, | C,E,A, G,E,D, | %8
 C,[G,C][A,C] C,[G,B,][G,B,] | C, ([G,C][G,C]) C, ([G,C][G,C]) | C,[G,C][G,C] [G,C][G,C] x | %11
 F,2 ([A,C] [A,C]2) z | [F,C][F,B,][F,A,] [F,^G,][F,A,]>[F,B,] | [C,C]3 C3 | %14
 [G,B,]G,G, [G,,G,]2 [G,,F,] | [C,E,]3- [C,E,]2 z || C,([G,C][G,C]) C, ([G,C][G,C]) | %17
 C,[G,C][G,C] ([G,C][G,C]) x | C,[G,C][G,C] C,[G,C][G,C] | D,2 G, G,2 z | B,,B,, x5 | %21
 G,,G,G, G,,G,G, | B,,G,G, G,,A,,B,, | C,E,A, G,E,D, | C, ([G,C][G,C]) C, ([G,C][G,C]) | %25
 C,[G,C][G,B,] C,([G,C][G,C]) | C,G,F, C,[G,C][G,C] | (F,2 [A,C] [A,C]2) z | %28
 [D,A,D]2 [E,^C] [F,D]2 [F,D] | [E,C]2 [E,D] (CA,)[F,A,] | G,3/2 G,3 x2 | E,3- E,2 z |] %32
V:4
 C, x C, x3 | C, x C, x3 | C,3 C,3 | x6 | G,,G,G, G,,G,G, | x6 | B,,G,G, G,,A,,B,, | %7
 (C,E,A,G,E,D,) | C, x C, x3 | C, x C, x3 | C,E, x4 | F,2 x4 | x6 | x3 (C,2 E,) | x G,G, x3 | x6 || %16
 C, x C, x3 | C, C, x4 | C, x C, x3 | (D,2 G, G,2) x | (B,,G,G,) x (B,,G,G,) | G,,G,G, G,,G,G, | %22
 B,,G,G, G,,A,,B,, | (C,E,A,G,E,D,) | C, x C, x3 | C, x C, x3 | x6 | x6 | x6 | x3 F,2 x | %30
 (G,G,,G,,) x/ (F,G,,G,,) | (C,G,,E,, E,,2) x |] %32

